icons/wasm.svg

<svg fill="none" height="490" viewBox="0 0 490 490" width="490" xmlns="http://www.w3.org/2000/svg"><g fill="#654ff0"><path d="m301.048 0v2.64077c0 14.90113-5.919 29.19193-16.456 39.72863-10.537 10.5366-24.828 16.4561-39.729 16.4561s-29.192-5.9195-39.728-16.4561c-10.537-10.5367-16.456-24.8275-16.456-39.72863 0-.91061 0-1.775689 0-2.64077h-188.679v490h490v-490zm-67.203 437.549-23.858-118.061h-.41l-25.816 118.061h-32.873l-37.244-173.472h32.464l22.219 118.061h.409l26.772-118.061h30.369l24.04 119.518h.41l25.361-119.518h31.871l-41.387 173.472zm178.753 0-11.064-38.61h-58.416l-8.514 38.61h-32.463l41.979-173.472h51.222l51.04 173.472z"/><path d="m363.653 306.831-14.16 63.651h44.073l-16.254-63.651z"/></g></svg>

<svg width="490" height="490" viewBox="0 0 490 490" fill="none" xmlns="http://www.w3.org/2000/svg">
<path d="M301.048 0C301.048 0.865081 301.048 1.73016 301.048 2.64077C301.048 17.5419 295.129 31.8327 284.592 42.3694C274.055 52.906 259.764 58.8255 244.863 58.8255C229.962 58.8255 215.671 52.906 205.135 42.3694C194.598 31.8327 188.679 17.5419 188.679 2.64077C188.679 1.73016 188.679 0.865081 188.679 0H0V490H490V0H301.048ZM233.845 437.549L209.987 319.488H209.577L183.761 437.549H150.888L113.644 264.077H146.108L168.327 382.138H168.736L195.508 264.077H225.877L249.917 383.595H250.327L275.688 264.077H307.559L266.172 437.549H233.845ZM412.598 437.549L401.534 398.939H343.118L334.604 437.549H302.141L344.12 264.077H395.342L446.382 437.549H412.598Z" fill="#654FF0"/>
<path d="M363.653 306.831L349.493 370.482H393.566L377.312 306.831H363.653Z" fill="#654FF0"/>
</svg>
